rospo-icon-theme-classic-common/32x32/places/folder-cyan-private.svg

<svg height="32" width="32" xmlns="http://www.w3.org/2000/svg"><rect height="16" opacity=".2" rx="1.25" width="25" x="3" y="12"/><path d="m3 21.75c0 .692.5575 1.25 1.25 1.25h22.5c.692 0 1.25-.558 1.25-1.25v-13.5c0-.6925-.558-1.25-1.25-1.25h-12.75v-.75c0-.6925-.557-1.25-1.25-1.25h-8.5c-.6925 0-1.25.5575-1.25 1.25" fill="#0096aa"/><rect height="16" opacity=".2" rx="1.25" width="25" x="3" y="10"/><rect fill="#e4e4e4" height="10" rx="1.25" width="21" x="5" y="9"/><rect fill="#00bcd4" height="16" rx="1.25" width="25" x="3" y="11"/><path d="m4.25 5c-.6925 0-1.25.5575-1.25 1.25v1c0-.6925.5575-1.25 1.25-1.25h8.5c.693 0 1.25.5575 1.25 1.25v.75h12.75c.692 0 1.25.5575 1.25 1.25v-1c0-.6925-.558-1.25-1.25-1.25h-12.75v-.75c0-.6925-.557-1.25-1.25-1.25z" fill="#fff" opacity=".1"/><path d="m13 16c-1.657 0-3 1.343-3 3s1.343 3 3 3c1.27 0 2.401-.803 2.824-2h2.176v1h2v-1h1v-2h-5.176c-.423-1.197-1.554-2-2.824-2zm0 2c .552 0 1 .448 1 1s-.448 1-1 1-1-.448-1-1 .448-1 1-1z" fill="#00424a"/></svg>

<svg xmlns="http://www.w3.org/2000/svg" width="32" height="32" version="1">
 <rect style="opacity:0.2" width="25" height="16" x="3" y="12" rx="1.25" ry="1.25"/>
 <path style="fill:#0096aa" d="M 3,21.75 C 3,22.442 3.5575,23 4.25,23 H 26.75 C 27.442,23 28,22.442 28,21.75 V 8.25 C 28,7.5575 27.442,7 26.75,7 H 14 V 6.25 C 14,5.5575 13.443,5 12.75,5 H 4.25 C 3.5575,5 3,5.5575 3,6.25"/>
 <rect style="opacity:0.2" width="25" height="16" x="3" y="10" rx="1.25" ry="1.25"/>
 <rect style="fill:#dcdcdc" width="21" height="10" x="5" y="9" rx="1.25" ry="1.25"/>
 <rect style="fill:#00bcd4" width="25" height="16" x="3" y="11" rx="1.25" ry="1.25"/>
 <path style="opacity:0.1;fill:#ffffff" d="M 4.25 5 C 3.5575 5 3 5.5575 3 6.25 L 3 7.25 C 3 6.5575 3.5575 6 4.25 6 L 12.75 6 C 13.443 6 14 6.5575 14 7.25 L 14 8 L 26.75 8 C 27.442 8 28 8.5575 28 9.25 L 28 8.25 C 28 7.5575 27.442 7 26.75 7 L 14 7 L 14 6.25 C 14 5.5575 13.443 5 12.75 5 L 4.25 5 z"/>
 <path style="fill:#00424A" d="M 13,16 C 11.343,16 10,17.343 10,19 10,20.657 11.343,22 13,22 14.27,22 15.401,21.197 15.824,20 H 18 V 21 H 20 V 20 H 21 V 18 H 15.824 C 15.401,16.803 14.27,16 13,16 Z M 13,18 C 13.552,18 14,18.448 14,19 14,19.552 13.552,20 13,20 12.448,20 12,19.552 12,19 12,18.448 12.448,18 13,18 Z"/>
</svg>
